local/share/icons/dracula-icons-main/scalable/apps/regextester.svg

<?xml version="1.0" encoding="UTF-8"?>
<svg xmlns="http://www.w3.org/2000/svg" xmlns:xlink="http://www.w3.org/1999/xlink" width="64" height="64" viewBox="0 0 64 64">
<path fill-rule="nonzero" fill="rgb(51.764706%, 83.137255%, 36.862745%)" fill-opacity="1" d="M 8.464844 1.324219 C 12.410156 1.324219 15.609375 4.519531 15.609375 8.464844 C 15.609375 12.410156 12.410156 15.609375 8.464844 15.609375 C 4.519531 15.609375 1.324219 12.410156 1.324219 8.464844 C 1.324219 4.519531 4.519531 1.324219 8.464844 1.324219 Z M 8.464844 1.324219 "/>
<path fill-rule="nonzero" fill="rgb(16.470588%, 16.470588%, 16.470588%)" fill-opacity="1" d="M 5.21875 5.863281 L 4.179688 9.683594 L 4.871094 9.683594 L 5.914062 5.863281 Z M 9.738281 5.863281 L 8.695312 9.683594 L 9.390625 9.683594 L 10.429688 5.863281 Z M 11.652344 6.90625 C 11.40625 6.90625 11.1875 6.945312 10.992188 7.03125 C 10.796875 7.109375 10.632812 7.222656 10.496094 7.371094 C 10.363281 7.511719 10.261719 7.683594 10.191406 7.886719 C 10.121094 8.082031 10.085938 8.300781 10.085938 8.539062 C 10.085938 8.8125 10.121094 9.046875 10.195312 9.242188 C 10.269531 9.4375 10.371094 9.605469 10.5 9.738281 C 10.628906 9.867188 10.777344 9.964844 10.949219 10.027344 C 11.390625 10.179688 11.78125 10.109375 12.167969 9.914062 L 12.167969 10.050781 C 12.167969 10.355469 12.167969 10.601562 12.0625 10.710938 C 11.914062 10.851562 11.664062 10.917969 11.320312 10.917969 C 11.140625 10.917969 10.964844 10.898438 10.792969 10.863281 C 10.628906 10.828125 10.488281 10.789062 10.371094 10.742188 L 10.265625 11.253906 C 10.398438 11.296875 10.550781 11.339844 10.730469 11.371094 C 10.914062 11.40625 11.105469 11.421875 11.308594 11.421875 C 11.832031 11.421875 12.222656 11.308594 12.476562 11.082031 C 12.734375 10.855469 12.863281 10.492188 12.863281 9.988281 L 12.863281 7.074219 C 12.46875 6.988281 12.078125 6.902344 11.652344 6.90625 Z M 12.167969 7.488281 L 12.167969 9.398438 C 11.824219 9.652344 11.582031 9.664062 11.226562 9.554688 C 10.964844 9.476562 10.851562 9.242188 10.757812 9.027344 C 10.699219 8.898438 10.6875 8.734375 10.6875 8.542969 C 10.6875 8.207031 10.75 7.914062 10.9375 7.726562 C 11.320312 7.34375 11.710938 7.410156 12.167969 7.488281 Z M 12.167969 7.488281 "/>
<path fill-rule="nonzero" fill="rgb(97.647059%, 97.647059%, 97.647059%)" fill-opacity="1" d="M 5.914062 5.863281 L 6.957031 9.683594 L 7.652344 9.683594 L 6.609375 5.863281 Z M 7.652344 9.683594 L 8.347656 9.683594 L 8.347656 8.988281 L 7.652344 8.988281 Z M 7.652344 9.683594 "/>
</svg>

<svg width="64" height="64" version="1.1" viewBox="0 0 16.933 16.933" xmlns="http://www.w3.org/2000/svg">
 <rect x="1.3229" y="1.3229" width="14.287" height="14.287" rx="7.1436" ry="7.1436" fill="#84d45e" stroke-width=".96428"/>
 <path d="m5.2204 5.863-1.0423 3.8216h0.69483l1.0423-3.8216zm4.5164 0-1.0423 3.8216h0.69483l1.0423-3.8216zm1.9142 1.0423c-0.24456 0.00211-0.46404 0.041776-0.65888 0.12553-0.19482 0.079566-0.36058 0.19271-0.49736 0.33927-0.13264 0.14238-0.2342 0.31401-0.30467 0.51501-0.07047 0.19682-0.10585 0.41475-0.10585 0.65346 0 0.2722 0.03734 0.50685 0.11197 0.70366 0.07461 0.19682 0.17617 0.36201 0.30467 0.49601 0.1285 0.12982 0.27789 0.22625 0.44786 0.28906 0.44202 0.15352 0.8337 0.08043 1.22-0.11332v0.13843c0 0.30151 0 0.54822-0.10722 0.65954-0.14923 0.1382-0.39626 0.20696-0.74031 0.20696-0.18239 0-0.35794-0.01863-0.5279-0.05632-0.16581-0.0335-0.30667-0.07336-0.42274-0.11943l-0.10585 0.5089c0.13264 0.04606 0.28792 0.08592 0.46616 0.11943 0.18239 0.0335 0.375 0.05021 0.57814 0.05021 0.52231 0 0.91214-0.11314 1.1691-0.33927 0.257-0.22613 0.38542-0.59061 0.38542-1.0931v-2.9144c-0.39652-0.08684-0.78632-0.17332-1.2126-0.16964zm0.51772 0.58422v1.9094c-0.34579 0.25235-0.58682 0.26522-0.94046 0.15742-0.26347-0.080316-0.3765-0.31498-0.47228-0.5279-0.05806-0.12909-0.06853-0.29536-0.06853-0.48381 0-0.3392 0.06185-0.62969 0.24835-0.81629 0.38268-0.38285 0.7754-0.31845 1.2329-0.23885z" fill="#2a2a2a" stroke-width=".34742"/>
 <path d="m5.9152 5.863 1.0423 3.8216h0.69483l-1.0423-3.8216zm1.7371 3.8216h0.69483v-0.69483h-0.69483z" fill="#f9f9f9" stroke-width=".34742"/>
</svg>
